src/assets/company/makers.svg

<svg width="137" height="39" viewBox="0 0 137 39" fill="none" xmlns="http://www.w3.org/2000/svg">
<path fillRule="evenodd" clipRule="evenodd" d="M136.067 0V38.48H115.335V0H136.067ZM45.0171 12.4543C46.0043 12.4543 46.9845 12.5232 47.9576 12.6612C48.9307 12.7991 49.8121 13.0818 50.6019 13.5094C51.3917 13.9369 52.0263 14.5369 52.5058 15.3092C52.9853 16.0816 53.2251 17.0884 53.2251 18.3297V29.3358C53.2251 30.1634 53.2744 30.7702 53.3732 31.1564C53.4719 31.5426 53.8033 31.7357 54.3674 31.7357C54.6777 31.7357 55.0444 31.6667 55.4675 31.5288V34.2596C54.8469 34.6182 53.9867 34.7975 52.8866 34.7975C51.9558 34.7975 51.2154 34.5424 50.6654 34.032C50.1154 33.5217 49.8403 32.6873 49.8403 31.5288C48.8531 32.6873 47.7037 33.5217 46.3921 34.032C45.0805 34.5424 43.6632 34.7975 42.1401 34.7975C41.1528 34.7975 40.215 34.6872 39.3265 34.4665C38.438 34.2458 37.6694 33.901 37.0206 33.4321C36.3719 32.9632 35.8571 32.3494 35.4763 31.5908C35.0956 30.8323 34.9052 29.9151 34.9052 28.8393C34.9052 27.6256 35.1167 26.6326 35.5398 25.8602C35.9629 25.0879 36.52 24.4603 37.211 23.9776C37.9021 23.4949 38.6918 23.1294 39.5803 22.8811C40.4688 22.6329 41.3785 22.426 42.3093 22.2605C43.2965 22.0674 44.2344 21.9226 45.1229 21.826C46.0114 21.7295 46.7941 21.5916 47.471 21.4123C48.148 21.233 48.6839 20.9709 49.0788 20.6261C49.4737 20.2813 49.6711 19.7779 49.6711 19.1159C49.6711 18.3435 49.523 17.7229 49.2269 17.2539C48.9307 16.785 48.5499 16.4264 48.0845 16.1782C47.6191 15.9299 47.0973 15.7644 46.5191 15.6816C45.9408 15.5989 45.3697 15.5575 44.8055 15.5575C43.2824 15.5575 42.0131 15.8402 40.9977 16.4057C39.9823 16.9712 39.4323 18.0401 39.3476 19.6124H35.7514C35.8078 18.2883 36.0898 17.1712 36.5975 16.2609C37.1053 15.3506 37.7822 14.6128 38.6284 14.0473C39.4746 13.4818 40.4406 13.0749 41.5266 12.8267C42.6125 12.5784 43.776 12.4543 45.0171 12.4543ZM89.8649 12.4543C91.8112 12.4543 93.426 12.8474 94.7093 13.6335C95.9927 14.4197 97.0222 15.4196 97.7979 16.6333C98.5736 17.847 99.1095 19.171 99.4057 20.6054C99.7018 22.0398 99.8217 23.4052 99.7653 24.7017H83.3916C83.3634 25.6395 83.4762 26.5291 83.7301 27.3705C83.9839 28.2118 84.3929 28.9565 84.9571 29.6048C85.5212 30.253 86.2404 30.7702 87.1148 31.1564C87.9892 31.5426 89.0187 31.7357 90.2034 31.7357C91.7265 31.7357 92.9747 31.3909 93.9478 30.7013C94.9209 30.0116 95.5626 28.9635 95.8728 27.5566H99.4268C98.9473 29.9565 97.8896 31.7632 96.2536 32.9769C94.6177 34.1907 92.5586 34.7975 90.0765 34.7975C88.3277 34.7975 86.8116 34.5217 85.5282 33.97C84.2448 33.4183 83.166 32.6459 82.2916 31.6529C81.4172 30.6599 80.7614 29.4738 80.3242 28.0945C79.887 26.7153 79.6402 25.212 79.5838 23.5845C79.5838 21.957 79.8376 20.4675 80.3453 19.1159C80.8531 17.7642 81.5653 16.5919 82.482 15.5989C83.3987 14.6058 84.4846 13.8335 85.7398 13.2818C86.995 12.7301 88.37 12.4543 89.8649 12.4543ZM124.812 12.4543C123.853 12.4543 122.887 12.5715 121.914 12.806C120.941 13.0404 120.067 13.399 119.291 13.8818C118.515 14.3645 117.881 14.992 117.387 15.7644C116.894 16.5368 116.647 17.4608 116.647 18.5366C116.647 19.9158 116.999 20.9916 117.704 21.764C118.41 22.5363 119.291 23.1363 120.349 23.5638C121.407 23.9914 122.556 24.3224 123.797 24.5569C125.038 24.7913 126.187 25.0534 127.245 25.343C128.303 25.6326 129.184 26.0119 129.89 26.4809C130.595 26.9498 130.947 27.6394 130.947 28.5497C130.947 29.2117 130.778 29.7565 130.44 30.184C130.101 30.6116 129.671 30.9357 129.149 31.1564C128.627 31.3771 128.056 31.5288 127.436 31.6115C126.815 31.6943 126.223 31.7357 125.659 31.7357C124.925 31.7357 124.213 31.6667 123.522 31.5288C122.831 31.3909 122.21 31.1633 121.66 30.8461C121.11 30.5288 120.666 30.1013 120.328 29.5634C119.989 29.0255 119.806 28.3704 119.778 27.598H116.181C116.238 28.9221 116.52 30.0461 117.027 30.9702C117.535 31.8943 118.212 32.639 119.058 33.2045C119.905 33.77 120.878 34.1769 121.978 34.4251C123.078 34.6734 124.234 34.7975 125.447 34.7975C126.547 34.7975 127.654 34.6941 128.768 34.4872C129.882 34.2803 130.884 33.9148 131.772 33.3907C132.661 32.8666 133.38 32.177 133.93 31.3219C134.48 30.4668 134.755 29.391 134.755 28.0945C134.755 27.0739 134.551 26.2188 134.142 25.5292C133.733 24.8396 133.197 24.2672 132.534 23.8121C131.871 23.3569 131.109 22.9915 130.249 22.7156C129.389 22.4398 128.507 22.2053 127.605 22.0122C126.759 21.8191 125.912 21.6329 125.066 21.4536C124.22 21.2743 123.459 21.0537 122.782 20.7916C122.105 20.5296 121.548 20.1986 121.11 19.7986C120.673 19.3986 120.455 18.8952 120.455 18.2883C120.455 17.7367 120.596 17.2884 120.878 16.9436C121.16 16.5988 121.526 16.323 121.978 16.1161C122.429 15.9092 122.93 15.7644 123.48 15.6816C124.03 15.5989 124.573 15.5575 125.109 15.5575C125.701 15.5575 126.286 15.6196 126.864 15.7437C127.443 15.8678 127.972 16.0678 128.451 16.3437C128.931 16.6195 129.325 16.985 129.636 17.4401C129.946 17.8953 130.129 18.4676 130.186 19.1572H133.782C133.697 17.8608 133.415 16.7781 132.936 15.9092C132.456 15.0403 131.815 14.3507 131.011 13.8404C130.207 13.3301 129.283 12.9715 128.239 12.7646C127.196 12.5577 126.053 12.4543 124.812 12.4543ZM23.397 12.4543C24.4971 12.4543 25.4913 12.5715 26.3798 12.806C27.2683 13.0404 28.0299 13.4059 28.6645 13.9025C29.2992 14.399 29.7928 15.0403 30.1454 15.8265C30.4979 16.6126 30.6742 17.5574 30.6742 18.6607V34.3424H27.0779V20.3158C27.0779 19.6538 27.0215 19.0331 26.9087 18.4538C26.7959 17.8746 26.5843 17.3712 26.2741 16.9436C25.9638 16.5161 25.5337 16.1782 24.9836 15.9299C24.4336 15.6816 23.7214 15.5575 22.847 15.5575C21.07 15.5575 19.6738 16.054 18.6584 17.0471C17.643 18.0401 17.1353 19.3641 17.1353 21.0192V34.3424H13.539V20.3158C13.539 19.6262 13.4755 18.9917 13.3486 18.4125C13.2217 17.8332 13.0031 17.3298 12.6928 16.9022C12.3825 16.4747 11.9665 16.1437 11.4447 15.9092C10.9228 15.6747 10.253 15.5575 9.43497 15.5575C8.39134 15.5575 7.4958 15.7644 6.74833 16.1782C6.00086 16.5919 5.39444 17.0884 4.92903 17.6677C4.46363 18.247 4.12516 18.8469 3.91361 19.4676C3.70206 20.0882 3.59629 20.6054 3.59629 21.0192V34.3424H0V12.9508H3.38474V16.0954H3.46936C5.10533 13.668 7.46052 12.4543 10.535 12.4543C11.8889 12.4543 13.1159 12.7301 14.2159 13.2818C15.316 13.8335 16.0916 14.7713 16.5429 16.0954C17.2763 14.9369 18.2423 14.0404 19.4411 13.4059C20.6399 12.7715 21.9585 12.4543 23.397 12.4543ZM62.6177 4.79966V22.3019L72.6027 12.9508H77.426L68.7526 20.7295L78.0606 34.3424H73.4912L66.0025 23.1708L62.6177 26.2326V34.3424H59.0215V4.79966H62.6177ZM114.87 12.4543V16.1782C113.431 16.1782 112.204 16.3712 111.189 16.7574C110.173 17.1436 109.355 17.7091 108.735 18.4538C108.114 19.1986 107.663 20.102 107.381 21.164C107.099 22.226 106.958 23.4466 106.958 24.8258V34.3424H103.362V12.9508H106.746V17.4608H106.831C107.705 15.723 108.777 14.4403 110.046 13.6128C111.316 12.7853 112.923 12.3991 114.87 12.4543ZM49.6288 23.2949C49.1775 23.6259 48.5852 23.8673 47.8518 24.019C47.1184 24.1707 46.3498 24.2948 45.546 24.3914C44.7421 24.4879 43.9311 24.5982 43.1132 24.7224C42.2952 24.8465 41.5618 25.0465 40.9131 25.3223C40.2643 25.5982 39.7355 25.9912 39.3265 26.5016C38.9175 27.0119 38.713 27.7084 38.713 28.5911C38.713 29.1703 38.8329 29.6599 39.0726 30.0599C39.3124 30.4599 39.6226 30.784 40.0034 31.0323C40.3842 31.2805 40.8285 31.4598 41.3362 31.5702C41.8439 31.6805 42.3798 31.7357 42.9439 31.7357C44.1286 31.7357 45.144 31.5771 45.9902 31.2598C46.8364 30.9426 47.5274 30.5426 48.0634 30.0599C48.5993 29.5772 48.9942 29.0531 49.248 28.4876C49.5019 27.9221 49.6288 27.3911 49.6288 26.8946V23.2949ZM89.6534 15.5575C88.7226 15.5575 87.8834 15.7161 87.136 16.0333C86.3885 16.3506 85.7468 16.785 85.2109 17.3367C84.675 17.8884 84.2519 18.5297 83.9416 19.2607C83.6314 19.9917 83.448 20.7709 83.3916 21.5985H95.9575C95.9011 20.7709 95.7107 19.9848 95.3863 19.24C95.0619 18.4952 94.6247 17.8539 94.0747 17.316C93.5247 16.7781 92.8759 16.3506 92.1285 16.0333C91.381 15.7161 90.556 15.5575 89.6534 15.5575Z" fill="white"/>
</svg>

<svg width="137" height="39" fill="none" xmlns="http://www.w3.org/2000/svg"><path d="M136.067 0v38.48h-20.732V0h20.732Zm-91.05 12.454c.987 0 1.967.07 2.94.207.974.138 1.855.42 2.645.848a5.02 5.02 0 0 1 1.904 1.8c.48.773.72 1.78.72 3.02v11.007c0 .827.048 1.434.147 1.82.099.387.43.58.994.58.31 0 .677-.07 1.1-.207v2.73c-.62.36-1.48.538-2.58.538-.931 0-1.672-.255-2.222-.765s-.825-1.345-.825-2.503c-.987 1.158-2.136 1.993-3.448 2.503-1.312.51-2.729.766-4.252.766-.987 0-1.925-.11-2.813-.331-.889-.221-1.658-.566-2.306-1.035a4.99 4.99 0 0 1-1.545-1.841c-.38-.759-.57-1.676-.57-2.752 0-1.213.21-2.206.634-2.979.423-.772.98-1.4 1.671-1.882a7.736 7.736 0 0 1 2.37-1.097 29.019 29.019 0 0 1 2.728-.62 33.628 33.628 0 0 1 2.814-.435 15.986 15.986 0 0 0 2.348-.414c.677-.179 1.213-.441 1.608-.786.395-.345.592-.848.592-1.51 0-.773-.148-1.393-.444-1.862a3.018 3.018 0 0 0-1.142-1.076 4.719 4.719 0 0 0-1.566-.496 12.092 12.092 0 0 0-1.713-.125c-1.524 0-2.793.283-3.808.849-1.016.565-1.566 1.634-1.65 3.206H35.75c.057-1.324.339-2.44.846-3.351a6.325 6.325 0 0 1 2.031-2.214c.847-.565 1.813-.972 2.899-1.22a15.634 15.634 0 0 1 3.49-.373Zm44.848 0c1.946 0 3.561.393 4.844 1.18 1.284.786 2.313 1.786 3.089 3a11.707 11.707 0 0 1 1.608 3.971c.296 1.435.416 2.8.36 4.097H83.391a8.314 8.314 0 0 0 .338 2.668 6.003 6.003 0 0 0 1.227 2.235c.564.648 1.283 1.165 2.158 1.551.874.387 1.904.58 3.088.58 1.523 0 2.772-.345 3.745-1.035.973-.69 1.615-1.738 1.925-3.144h3.554c-.48 2.4-1.537 4.206-3.173 5.42-1.636 1.214-3.695 1.82-6.178 1.82-1.748 0-3.264-.275-4.548-.827-1.283-.552-2.362-1.324-3.236-2.317-.875-.993-1.53-2.18-1.968-3.558-.437-1.38-.684-2.883-.74-4.51 0-1.628.254-3.117.761-4.47.508-1.35 1.22-2.523 2.137-3.516a9.688 9.688 0 0 1 3.258-2.317c1.255-.552 2.63-.828 4.125-.828Zm34.947 0c-.959 0-1.925.117-2.898.352a8.849 8.849 0 0 0-2.623 1.076 5.987 5.987 0 0 0-1.904 1.882c-.493.773-.74 1.697-.74 2.773 0 1.379.352 2.455 1.057 3.227.706.772 1.587 1.372 2.645 1.8 1.058.427 2.207.758 3.448.993a44.08 44.08 0 0 1 3.448.786c1.058.29 1.939.669 2.645 1.138.705.469 1.057 1.158 1.057 2.069 0 .662-.169 1.206-.507 1.634a3.213 3.213 0 0 1-1.291.972 6.63 6.63 0 0 1-1.713.456c-.621.082-1.213.124-1.777.124-.734 0-1.446-.07-2.137-.207a6.081 6.081 0 0 1-1.862-.683 3.783 3.783 0 0 1-1.332-1.283c-.339-.537-.522-1.193-.55-1.965h-3.597c.057 1.324.339 2.448.846 3.372a6.277 6.277 0 0 0 2.031 2.235c.847.565 1.82.972 2.92 1.22 1.1.248 2.256.373 3.469.373 1.1 0 2.207-.104 3.321-.31 1.114-.208 2.116-.573 3.004-1.097a6.38 6.38 0 0 0 2.158-2.07c.55-.854.825-1.93.825-3.227 0-1.02-.204-1.875-.613-2.565a5.401 5.401 0 0 0-1.608-1.717 8.712 8.712 0 0 0-2.285-1.096 27.52 27.52 0 0 0-2.644-.704c-.846-.193-1.693-.38-2.539-.558-.846-.18-1.607-.4-2.284-.662-.677-.262-1.234-.593-1.672-.993-.437-.4-.655-.904-.655-1.51 0-.552.141-1 .423-1.345.282-.345.648-.621 1.1-.828a5.577 5.577 0 0 1 1.502-.434c.55-.083 1.093-.125 1.629-.125.592 0 1.177.063 1.755.187a5.442 5.442 0 0 1 1.587.6c.48.275.874.641 1.185 1.096.31.455.493 1.028.55 1.717h3.596c-.085-1.296-.367-2.379-.846-3.248a5.618 5.618 0 0 0-1.925-2.069c-.804-.51-1.728-.868-2.772-1.075-1.043-.207-2.186-.31-3.427-.31Zm-101.415 0c1.1 0 2.094.117 2.983.352.888.234 1.65.6 2.285 1.097a4.983 4.983 0 0 1 1.48 1.923c.353.787.53 1.731.53 2.835v15.681h-3.597V20.316c0-.662-.056-1.283-.17-1.862a3.758 3.758 0 0 0-.634-1.51c-.31-.428-.74-.766-1.29-1.014s-1.263-.373-2.137-.373c-1.777 0-3.173.497-4.189 1.49-1.015.993-1.523 2.317-1.523 3.972v13.323H13.54V20.316c0-.69-.063-1.324-.19-1.903a3.992 3.992 0 0 0-.656-1.51 3.051 3.051 0 0 0-1.248-.994c-.522-.234-1.192-.352-2.01-.352-1.044 0-1.94.207-2.687.621-.747.414-1.354.91-1.819 1.49a5.936 5.936 0 0 0-1.015 1.8c-.212.62-.318 1.137-.318 1.551v13.323H0V12.951h3.385v3.144h.084c1.636-2.427 3.992-3.64 7.066-3.64 1.354 0 2.58.275 3.68.827 1.101.552 1.877 1.49 2.328 2.813a7.568 7.568 0 0 1 2.898-2.69c1.199-.633 2.518-.95 3.956-.95ZM62.617 4.8v17.502l9.986-9.351h4.823l-8.673 7.779 9.308 13.612h-4.57l-7.489-11.171-3.384 3.062v8.11h-3.596V4.8h3.596Zm52.253 7.654v3.724c-1.439 0-2.666.193-3.681.58-1.016.386-1.834.951-2.454 1.696-.621.745-1.072 1.648-1.354 2.71-.282 1.062-.423 2.283-.423 3.662v9.516h-3.596V12.951h3.384v4.51h.085c.874-1.738 1.946-3.02 3.215-3.848 1.27-.828 2.877-1.214 4.824-1.159Zm-65.241 10.84c-.451.332-1.044.573-1.777.725-.734.152-1.502.276-2.306.372-.804.097-1.615.207-2.433.331a9.102 9.102 0 0 0-2.2.6 3.993 3.993 0 0 0-1.586 1.18c-.41.51-.614 1.206-.614 2.09 0 .578.12 1.068.36 1.468.24.4.55.724.93.972.381.248.825.428 1.333.538.508.11 1.044.166 1.608.166 1.185 0 2.2-.159 3.046-.476.846-.317 1.537-.717 2.073-1.2s.931-1.007 1.185-1.572c.254-.566.38-1.097.38-1.593v-3.6Zm40.024-7.737c-.93 0-1.77.16-2.517.476a5.818 5.818 0 0 0-1.925 1.304 6.223 6.223 0 0 0-1.27 1.924 7.192 7.192 0 0 0-.55 2.338h12.566a7.064 7.064 0 0 0-.57-2.359 6.022 6.022 0 0 0-1.312-1.924 6.238 6.238 0 0 0-1.947-1.283c-.747-.317-1.572-.476-2.475-.476Z" fill="#fff"/></svg>
